src/assets/dots.svg

<svg xmlns="http://www.w3.org/2000/svg" width="164" height="159" fill="none" xmlns:v="https://vecta.io/nano"><g clip-path="url(#A)" fill="#1f44fa"><path d="M82.2 44.5c-.15.67-.32 1.56-.02 2.06.5.83.22 1.52.26 2.31.22 3.76.34 7.6 2.94 10.76.35.43.32 1.17.45 1.73 2.82-.01 2.89-.06 4.14-2.26.15-.26.44-.73.55-.7 1.75.49 1.59-.91 1.82-1.84.67-2.74.77-5.78 2.08-8.17 1.19-2.17.82-4.01.66-6.07-.06-.81.03-1.64.16-2.45.27-1.6.88-3.35-.44-4.64-1.33-1.29-1.84-3.02-2.9-4.42-.33-.43-.69-.85-1.1-1.36l-2.05 4.63-2.76-2.01c-.83 1.29-1.45 2.14-1.94 3.06-.33.63-.79 1.44-.65 2.03.67 2.66-.66 4.92-1.2 7.34zM46.73 18.65c-3.1-1.8-6.58-2.78-9.43-5.21-2.5-2.14-2.33-4.73-2.57-7.35-.15-1.68.09-3.4.16-5.15 1.07-.87 2.18-1.18 3.56-.75 1.81.56 3.64 1.35 5.6.43.23-.11.83.04.89.19.61 1.78 1.61 2.18 3.14 1 .35.45.61 1.18 1.05 1.31 2.21.65 4.6.82 6.3 2.68 1.09-.66 2.08-.86 2.75.56L54.66 7.9l-.86-1.25-1.15 2.4c.85.18 1.48.24 2.05.44 2.82.95 2.78.99 2.82 4.27.01.57.65 1.13 1.08 1.82-1.79.49-3.55 1.27-5.34 1.37-1.6.09-2.73.38-3.84 1.63-.44.46-2.01.47-2.69.07zm5.8-6.82l-.07.69 3.43.41c.02-.26.05-.52.08-.78l-3.44-.32zM41.57 88.81c.01-.05-.43-.32-.51-.27-1.28.89-3-.65-3.82.23-1.39 1.5-2.81.33-4.27.62-2.29 3.88-1.91 8.17-1.96 12.45-.05 4.18 1.89 7.89 2.53 12.22 2.01-.86 2.06.67 2.25 2.18 1.04-2.28 5.03-1.84 4.33-5.29.82-.51 1.66-.99 2.44-1.54 1.4-1 2.28-2.12 2.15-4.13-.11-1.83.59-3.7 1.02-6.03-.14-.36-1.01-1.46-.75-2.09.74-1.79-.59-2.75-1.11-4.03-.59-1.53-2.84-2.17-2.3-4.32zm32.2 44.91l1.32-1.41c.03-.04-.06-.18-.03-.08-5.18-3.23-10.5-5.49-16.87-4.56-.51 2.66-2.89 5.31-.61 8.66l-3.22-1.67c-1.35 1.78-.16 2.68.98 3.45 2.38 1.59 4.7 3.32 7.25 4.59 4.2 2.09 8.23 5.26 13.58 3.17l-1.25-2.56 2.22-.79c-.85-1.03-1.36-1.89-.73-3.21.76-1.59 1.94.27 2.75-.54-.77-2.72-3.48-3.46-5.39-5.05zm90.05-81.38c.08-.17.02-.41.03-.61l-1.29-1.25c.01-1.19 2.5-2.11.3-3.33.52-2.61-2.32-.51-2.73-2.06l2.11-.79-.88-2.36c-2.97.13-5.46.67-7.05 3.3-.42.69-1.32 1.07-1.96 1.63l-5.5 4.95c-.51.49-.91 1.2-1.12 1.88-.36 1.16-.53 2.39-.81 3.75l1.69-.12c.05 1.12-.31 2.79.23 3.17 1.24.87.82 2.12 1.33 3.09 1.08 2.04 4.86 3.17 6.6 1.69 1.86-1.58 3.69-3.32 5.05-5.32 1.6-2.36 2.7-5.06 4-7.62zm-70.29 61.34l3.03-1.32c-.25-3.2-1.74-5.51-4.4-6.75-2-.94-4.41-1.02-6.38-2-2.9-1.44-5.79-2.27-9.12-1.64l-2.97 9.85c1.82 1.44 3.37 3.19 5.3 4.09 4.65 2.17 9.81 2.22 15.3 3.03l-.14-2.17 1.81-1.81-2.43-1.28zM77.59 84.7c-.09-2-.78-3.44-2.67-4.34 2.38-.8 3.57.72 5 1.53l.53-.55-2.36-1.82c-1.12-.85-1.27-1.96-.08-2.85 1.46-1.09-.17-1.64-.36-2.37l2.16-.05L76.3 68c-.59-1.04-.95-2.25-2.59-2.17-.51.02-1.15-.55-1.57-1-1.49-1.57-2.93-2.03-4.81-1.4-1.31.44-2.62.91-4.11.07l1.04 2.7-2.65-.42 1.79 5.77c-1.93 1.33-1.93 1.33-.77 4.05-.1.17-.18.37-.31.51-.71.79-.71.78.27 1.4.14.09.38.18.39.29.22 2.56 2.37 2.98 4.17 3.71 1.59.65 3.43.87 4.79 1.8 1.82 1.25 3.68 1.16 5.65 1.39zM20.93 63.08c-1.62-1.52-2.33-3.84-5.21-2.38.66-1.47 1.64-2.73-.04-3.77-.56.31-1.12.88-1.67.88-1.84 0-3.46.39-4.99 1.48-1.18.84-2.63 1.28-3.81 2.1-1.28.89-3.11 1.03-3.77 2.79L0 67.52c.83 1.92 2.04 3.54 2.13 5.22.11 1.96.95 2.78 2.47 3.44.57.25 1.09.63 1.74 1.02 5.7-2.13 9.98-6.36 14.71-10.93l-3.53-1.99 3.41-1.2zm10.66 74.44c1.27-1.59.43-2.7-.79-3.67-.01.01-.03.01-.04.02l.58 1.77-.54.35-1.48-1.48 1.44-.63c-.01-.02-.01-.04-.02-.07.02.02.04.03.06.05l.78.22.05.06c.01-.04.01-.07.02-.11-.02.01-.04.01-.06.02-.92-1.94-2.62-3.04-4.58-2.65-1.28.26-2.24.67-3.49-.06-.56-.33-1.49-.16-2.22-.03l-6.17 1.33c.02.87-.33 2.18.13 3.09.89 1.76-1.59 1.59-1.31 2.82.09.41.26.8.36 1.21.16.61.55 1.3.4 1.83-.52 1.83-.06 3.21 1.59 4.08 1.39.72 2.81 1.58 4.31 1.83 1.64.28 3.4-.16 5.1-.09 1.48.06 2.3-.6 3.18-1.71 1.17-1.48 2.64-2.72 4.04-4.11l-1.01-2.64 3.14.07-3.47-1.5zM43.7 53.36l9.1-1.41c1.34-.22 4.49-3.15 4.01-3.98-1.02-1.75.51-2.23 1.15-3.4-2.7-.03-2.57-2.95-4.58-3.93l2-1.47c-1.77-1.72-3.83-1.93-6.01-1.68-1.27.15-2.57.56-3.81.44-2.51-.24-4.24 1.34-6.18 2.37-.58.31-.97 1.4-1.05 2.17-.17 1.76-.1 3.55-.13 5.41l-2.42.92c.5.86 1.12 2.16 1.26 2.11 2.13-.74 2.58 1.57 3.97 2.04.85.3 1.82.52 2.69.41zm70.38 86.33c-2.52-1.42.28-3.45-.12-5.46-1.98.07-4.09-.23-5.95.31-1.51.44-2.85 1.75-4.05 2.91-1.22 1.18-2 2.84-3.27 3.95-1.41 1.23-.25 2.76-1.01 4.21-1.48 2.87-.89 4.76.55 6.94.62.94.88 2.23 1.69 2.9 1.41 1.15 3.09 1.98 4.72 2.82.2.1.99-.46 1.18-.87l5.53-12.63c.35-.87-.11-2.04-.03-3.06.05-.6.43-1.18.76-2.02zm43.2-32.71c.75-2.37 1.77-4.68.41-7.17-.19-.35-.24-.85-.16-1.24.29-1.55-.79-2.04-2.02-2.55l.79-2.61-5.3-.57-3.15 6.2c-.71 1.41-1.27 2.91-2.14 4.21-1.03 1.54-1.24 3.16-1.38 5.01l1.3-.49c.04 1.29-.35 2.75.19 3.32 1.07 1.13 1.16 2.44 1.59 3.72.17.5.41.99.68 1.45 1.77 3.07 4.37 3.16 6.11.16.63-1.1 1.07-2.33 1.45-3.54l1.63-5.9zm-38.74-27.12l-4.97-.83c.09-2.17.28-3.89 2.4-4.62l-1.21-1.84-.81 1.89c-.33-.15-.62-.2-.65-.31-.2-.82-.73-1.84-.44-2.44.82-1.66 0-2.54-1.49-3.47 1.17-2.3 2.56-4.39 3.29-6.68.69-2.17 3.5-3.01 3.22-5.81 1.52.39 3.13 1.04 4.42-.79l4.29 2.97-2.52.89.04.53 3.07.04c.68 2.9-.26 5.65-1.66 8-1.88 3.15-4.44 5.88-5.11 9.7-.17.96-1.15 1.75-1.87 2.77zm.39-2.92l-3.37-.47 2.18 1.89 1.19-1.42zm7.88 31.35l-2.06.05-.68 1.6c-.35 0-.67.08-.75-.02-.96-1.32-2.51-1.37-3.85-1.91l-9.04-3.92c-.84-.4-1.44-1.32-2.14-2l.4-.57 2.36.71c-.24-.63-.26-1.05-.46-1.16-.9-.5-2.07-.68-1.94-2.15.14-1.56-.05-3.2.35-4.68.34-1.28 1.79-1.54 2.89-.69.72.56 1.24 1.38 1.85 2.09l-.11.1.06.06-1.04 1.72 2.87.06-1.83-1.79c.02-.04.05-.08.07-.12l-.03-.03c.3-.28.63-.7.84-.65l5.05 1.53c.5.17.94.65 1.43.7 2.67.27 4.1 1.53 3.89 4.36-.02.3.48.65.65.87-.49.64-1.28 1.21-1.28 1.79-.01.65-.1 1.9 1.21 1.85 1.57-.05 1.32 1.02 1.29 2.2zm-15.76-10.27l.27-1.96c-1.39.55-1.69 1.1-.27 1.96zm13.32-43.13c.18.15.64-.04 1.24-.1-.31-.67-.39-1.2-.66-1.32-.25-.11-.88.16-.99.41s.15.79.41 1.01z" fill-opacity=".05"/><path d="M33.44 132.92l-1.52-.46-.27 1.57 1.77-.6.02-.51z" fill-opacity=".05"/></g><defs><clipPath id="A"><path fill="#fff" d="M0 0h163.87v158.29H0z"/></clipPath></defs></svg>

<svg width="164" height="159" viewBox="0 0 164 159" fill="none" xmlns="http://www.w3.org/2000/svg">
<g clip-path="url(#clip0_132_4070)">
<path d="M82.1999 44.5C82.0499 45.17 81.8799 46.06 82.1799 46.56C82.6799 47.39 82.3999 48.08 82.4399 48.87C82.6599 52.63 82.7799 56.47 85.3799 59.63C85.7299 60.06 85.6999 60.8 85.8299 61.36C88.6499 61.35 88.7199 61.3 89.9699 59.1C90.1199 58.84 90.4099 58.37 90.5199 58.4C92.2699 58.89 92.1099 57.49 92.3399 56.56C93.0099 53.82 93.1099 50.78 94.4199 48.39C95.6099 46.22 95.2399 44.38 95.0799 42.32C95.0199 41.51 95.1099 40.68 95.2399 39.87C95.5099 38.27 96.1199 36.52 94.7999 35.23C93.4699 33.94 92.9599 32.21 91.8999 30.81C91.5699 30.38 91.2099 29.96 90.7999 29.45C90.0499 31.15 89.4199 32.57 88.7499 34.08C87.6799 33.3 86.8699 32.71 85.9899 32.07C85.1599 33.36 84.5399 34.21 84.0499 35.13C83.7199 35.76 83.2599 36.57 83.3999 37.16C84.0699 39.82 82.7399 42.08 82.1999 44.5Z" fill="#1F44FA" fill-opacity="0.05"/>
<path d="M46.7301 18.65C43.6301 16.85 40.1501 15.87 37.3001 13.44C34.8001 11.3 34.9701 8.71 34.7301 6.09C34.5801 4.41 34.8201 2.69 34.8901 0.94C35.9601 0.0699996 37.0701 -0.24 38.4501 0.19C40.2601 0.75 42.0901 1.54 44.0501 0.62C44.2801 0.51 44.8801 0.66 44.9401 0.81C45.5501 2.59 46.5501 2.99 48.0801 1.81C48.4301 2.26 48.6901 2.99 49.1301 3.12C51.3401 3.77 53.7301 3.94 55.4301 5.8C56.5201 5.14 57.5101 4.94 58.1801 6.36C56.8601 6.93 55.8001 7.4 54.6601 7.9C54.5801 7.78 54.2901 7.36 53.8001 6.65C53.3901 7.51 53.0701 8.17 52.6501 9.05C53.5001 9.23 54.1301 9.29 54.7001 9.49C57.5201 10.44 57.4801 10.48 57.5201 13.76C57.5301 14.33 58.1701 14.89 58.6001 15.58C56.8101 16.07 55.0501 16.85 53.2601 16.95C51.6601 17.04 50.5301 17.33 49.4201 18.58C48.9801 19.04 47.4101 19.05 46.7301 18.65ZM52.5301 11.83C52.5101 12.06 52.4801 12.29 52.4601 12.52C53.6001 12.66 54.7501 12.79 55.8901 12.93C55.9101 12.67 55.9401 12.41 55.9701 12.15C54.8301 12.05 53.6801 11.94 52.5301 11.83Z" fill="#1F44FA" fill-opacity="0.05"/>
<path d="M41.57 88.81C41.58 88.76 41.14 88.49 41.06 88.54C39.78 89.43 38.06 87.89 37.24 88.77C35.85 90.27 34.43 89.1 32.97 89.39C30.68 93.27 31.06 97.56 31.01 101.84C30.96 106.02 32.9 109.73 33.54 114.06C35.55 113.2 35.6 114.73 35.79 116.24C36.83 113.96 40.82 114.4 40.12 110.95C40.94 110.44 41.78 109.96 42.56 109.41C43.96 108.41 44.84 107.29 44.71 105.28C44.6 103.45 45.3 101.58 45.73 99.25C45.59 98.89 44.72 97.79 44.98 97.16C45.72 95.37 44.39 94.41 43.87 93.13C43.28 91.6 41.03 90.96 41.57 88.81Z" fill="#1F44FA" fill-opacity="0.05"/>
<path d="M73.77 133.72C74.3 133.16 74.7 132.75 75.09 132.31C75.12 132.27 75.03 132.13 75.06 132.23C69.88 129 64.56 126.74 58.19 127.67C57.68 130.33 55.3 132.98 57.58 136.33C56.53 135.79 55.49 135.24 54.36 134.66C53.01 136.44 54.2 137.34 55.34 138.11C57.72 139.7 60.04 141.43 62.59 142.7C66.79 144.79 70.82 147.96 76.17 145.87C75.78 145.07 75.38 144.25 74.92 143.31C75.78 143 76.44 142.77 77.14 142.52C76.29 141.49 75.78 140.63 76.41 139.31C77.17 137.72 78.35 139.58 79.16 138.77C78.39 136.05 75.68 135.31 73.77 133.72Z" fill="#1F44FA" fill-opacity="0.05"/>
<path d="M163.82 52.34C163.9 52.17 163.84 51.93 163.85 51.73C163.42 51.31 162.98 50.89 162.56 50.48C162.57 49.29 165.06 48.37 162.86 47.15C163.38 44.54 160.54 46.64 160.13 45.09C160.77 44.85 161.41 44.61 162.24 44.3C161.92 43.43 161.63 42.67 161.36 41.94C158.39 42.07 155.9 42.61 154.31 45.24C153.89 45.93 152.99 46.31 152.35 46.87C150.5 48.5 148.63 50.12 146.85 51.82C146.34 52.31 145.94 53.02 145.73 53.7C145.37 54.86 145.2 56.09 144.92 57.45C145.44 57.41 146.01 57.37 146.61 57.33C146.66 58.45 146.3 60.12 146.84 60.5C148.08 61.37 147.66 62.62 148.17 63.59C149.25 65.63 153.03 66.76 154.77 65.28C156.63 63.7 158.46 61.96 159.82 59.96C161.42 57.6 162.52 54.9 163.82 52.34Z" fill="#1F44FA" fill-opacity="0.05"/>
<path d="M93.5299 113.68C94.6599 113.19 95.5899 112.78 96.5599 112.36C96.3099 109.16 94.8199 106.85 92.1599 105.61C90.1599 104.67 87.7499 104.59 85.7799 103.61C82.8799 102.17 79.9899 101.34 76.6599 101.97C75.7099 105.11 74.7499 108.29 73.6899 111.82C75.5099 113.26 77.0599 115.01 78.9899 115.91C83.6399 118.08 88.7999 118.13 94.2899 118.94C94.2199 117.82 94.1699 117.02 94.1499 116.77C94.8999 116.02 95.3799 115.54 95.9599 114.96C94.9699 114.43 94.3399 114.1 93.5299 113.68Z" fill="#1F44FA" fill-opacity="0.05"/>
<path d="M77.59 84.7C77.5 82.7 76.81 81.26 74.92 80.36C77.3 79.56 78.49 81.08 79.92 81.89C80.1 81.71 80.28 81.52 80.45 81.34C79.66 80.73 78.88 80.12 78.09 79.52C76.97 78.67 76.82 77.56 78.01 76.67C79.47 75.58 77.84 75.03 77.65 74.3C78.32 74.28 78.88 74.27 79.81 74.25C78.51 71.94 77.41 69.97 76.3 68C75.71 66.96 75.35 65.75 73.71 65.83C73.2 65.85 72.56 65.28 72.14 64.83C70.65 63.26 69.21 62.8 67.33 63.43C66.02 63.87 64.71 64.34 63.22 63.5C63.53 64.32 63.85 65.14 64.26 66.2C63.42 66.07 62.76 65.96 61.61 65.78C62.27 67.92 62.84 69.75 63.4 71.55C61.47 72.88 61.47 72.88 62.63 75.6C62.53 75.77 62.45 75.97 62.32 76.11C61.61 76.9 61.61 76.89 62.59 77.51C62.73 77.6 62.97 77.69 62.98 77.8C63.2 80.36 65.35 80.78 67.15 81.51C68.74 82.16 70.58 82.38 71.94 83.31C73.76 84.56 75.62 84.47 77.59 84.7Z" fill="#1F44FA" fill-opacity="0.05"/>
<path d="M20.93 63.08C19.31 61.56 18.6 59.24 15.72 60.7C16.38 59.23 17.36 57.97 15.68 56.93C15.12 57.24 14.56 57.81 14.01 57.81C12.17 57.81 10.55 58.2 9.02 59.29C7.84 60.13 6.39 60.57 5.21 61.39C3.93 62.28 2.1 62.42 1.44 64.18C0.96 65.44 0.37 66.67 0 67.52C0.83 69.44 2.04 71.06 2.13 72.74C2.24 74.7 3.08 75.52 4.6 76.18C5.17 76.43 5.69 76.81 6.34 77.2C12.04 75.07 16.32 70.84 21.05 66.27C19.8 65.56 18.85 65.03 17.52 64.28C18.73 63.86 19.71 63.52 20.93 63.08Z" fill="#1F44FA" fill-opacity="0.05"/>
<path d="M31.59 137.52C32.86 135.93 32.02 134.82 30.8 133.85C30.79 133.86 30.77 133.86 30.76 133.87C30.95 134.46 31.14 135.05 31.34 135.64C31.16 135.75 30.98 135.87 30.8 135.99C30.33 135.52 29.86 135.05 29.32 134.51C29.96 134.24 30.37 134.06 30.76 133.88C30.75 133.86 30.75 133.84 30.74 133.81C30.76 133.83 30.78 133.84 30.8 133.86C30.8 133.86 30.81 133.86 30.81 133.85C31.05 133.92 31.32 134 31.58 134.08L31.63 134.14C31.64 134.1 31.64 134.07 31.65 134.03C31.63 134.04 31.61 134.04 31.59 134.05C30.67 132.11 28.97 131.01 27.01 131.4C25.73 131.66 24.77 132.07 23.52 131.34C22.96 131.01 22.03 131.18 21.3 131.31C19.35 131.67 17.41 132.14 15.13 132.64C15.15 133.51 14.8 134.82 15.26 135.73C16.15 137.49 13.67 137.32 13.95 138.55C14.04 138.96 14.21 139.35 14.31 139.76C14.47 140.37 14.86 141.06 14.71 141.59C14.19 143.42 14.65 144.8 16.3 145.67C17.69 146.39 19.11 147.25 20.61 147.5C22.25 147.78 24.01 147.34 25.71 147.41C27.19 147.47 28.01 146.81 28.89 145.7C30.06 144.22 31.53 142.98 32.93 141.59C32.72 141.04 32.37 140.14 31.92 138.95C33.07 138.98 33.68 138.99 35.06 139.02C33.53 138.36 32.76 138.03 31.59 137.52Z" fill="#1F44FA" fill-opacity="0.05"/>
<path d="M43.7 53.36C46.74 52.98 49.77 52.45 52.8 51.95C54.14 51.73 57.29 48.8 56.81 47.97C55.79 46.22 57.32 45.74 57.96 44.57C55.26 44.54 55.39 41.62 53.38 40.64C54.18 40.05 54.75 39.63 55.38 39.17C53.61 37.45 51.55 37.24 49.37 37.49C48.1 37.64 46.8 38.05 45.56 37.93C43.05 37.69 41.32 39.27 39.38 40.3C38.8 40.61 38.41 41.7 38.33 42.47C38.16 44.23 38.23 46.02 38.2 47.88C37.46 48.16 36.82 48.41 35.78 48.8C36.28 49.66 36.9 50.96 37.04 50.91C39.17 50.17 39.62 52.48 41.01 52.95C41.86 53.25 42.83 53.47 43.7 53.36Z" fill="#1F44FA" fill-opacity="0.05"/>
<path d="M114.08 139.69C111.56 138.27 114.36 136.24 113.96 134.23C111.98 134.3 109.87 134 108.01 134.54C106.5 134.98 105.16 136.29 103.96 137.45C102.74 138.63 101.96 140.29 100.69 141.4C99.28 142.63 100.44 144.16 99.68 145.61C98.2 148.48 98.79 150.37 100.23 152.55C100.85 153.49 101.11 154.78 101.92 155.45C103.33 156.6 105.01 157.43 106.64 158.27C106.84 158.37 107.63 157.81 107.82 157.4C109.72 153.22 111.62 149.03 113.35 144.77C113.7 143.9 113.24 142.73 113.32 141.71C113.37 141.11 113.75 140.53 114.08 139.69Z" fill="#1F44FA" fill-opacity="0.05"/>
<path d="M157.28 106.98C158.03 104.61 159.05 102.3 157.69 99.81C157.5 99.46 157.45 98.96 157.53 98.57C157.82 97.02 156.74 96.53 155.51 96.02C155.77 95.17 156 94.38 156.3 93.41C154.41 93.21 152.71 93.02 151 92.84C149.87 95.06 148.86 97.05 147.85 99.04C147.14 100.45 146.58 101.95 145.71 103.25C144.68 104.79 144.47 106.41 144.33 108.26C144.89 108.05 145.17 107.94 145.63 107.77C145.67 109.06 145.28 110.52 145.82 111.09C146.89 112.22 146.98 113.53 147.41 114.81C147.58 115.31 147.82 115.8 148.09 116.26C149.86 119.33 152.46 119.42 154.2 116.42C154.83 115.32 155.27 114.09 155.65 112.88C156.25 110.93 156.67 108.92 157.28 106.98Z" fill="#1F44FA" fill-opacity="0.05"/>
<path d="M118.54 79.86C116.98 79.6 115.33 79.32 113.57 79.03C113.66 76.86 113.85 75.14 115.97 74.41C115.55 73.78 115.14 73.15 114.76 72.57C114.51 73.15 114.23 73.81 113.95 74.46C113.62 74.31 113.33 74.26 113.3 74.15C113.1 73.33 112.57 72.31 112.86 71.71C113.68 70.05 112.86 69.17 111.37 68.24C112.54 65.94 113.93 63.85 114.66 61.56C115.35 59.39 118.16 58.55 117.88 55.75C119.4 56.14 121.01 56.79 122.3 54.96C123.79 56 124.97 56.81 126.59 57.93C125.37 58.36 124.72 58.59 124.07 58.82C124.08 59 124.1 59.18 124.11 59.35C125.07 59.36 126.04 59.38 127.18 59.39C127.86 62.29 126.92 65.04 125.52 67.39C123.64 70.54 121.08 73.27 120.41 77.09C120.24 78.05 119.26 78.84 118.54 79.86ZM118.93 76.94C117.79 76.78 117.01 76.67 115.56 76.47C116.59 77.36 117.17 77.86 117.74 78.36C118.08 77.96 118.42 77.55 118.93 76.94Z" fill="#1F44FA" fill-opacity="0.05"/>
<path d="M126.81 108.29C126.15 108.31 125.46 108.32 124.75 108.34C124.52 108.88 124.29 109.44 124.07 109.94C123.72 109.94 123.4 110.02 123.32 109.92C122.36 108.6 120.81 108.55 119.47 108.01C116.42 106.78 113.39 105.5 110.43 104.09C109.59 103.69 108.99 102.77 108.29 102.09C108.42 101.9 108.56 101.71 108.69 101.52C109.39 101.73 110.09 101.94 111.05 102.23C110.81 101.6 110.79 101.18 110.59 101.07C109.69 100.57 108.52 100.39 108.65 98.92C108.79 97.36 108.6 95.72 109 94.24C109.34 92.96 110.79 92.7 111.89 93.55C112.61 94.11 113.13 94.93 113.74 95.64C113.71 95.67 113.67 95.71 113.63 95.74C113.65 95.76 113.67 95.78 113.69 95.8C113.39 96.29 113.08 96.8 112.65 97.52C113.46 97.54 114.11 97.55 115.52 97.58C114.6 96.68 114.14 96.23 113.69 95.79C113.71 95.75 113.74 95.71 113.76 95.67C113.75 95.66 113.74 95.65 113.73 95.64C114.03 95.36 114.36 94.94 114.57 94.99C116.27 95.43 117.95 95.96 119.62 96.52C120.12 96.69 120.56 97.17 121.05 97.22C123.72 97.49 125.15 98.75 124.94 101.58C124.92 101.88 125.42 102.23 125.59 102.45C125.1 103.09 124.31 103.66 124.31 104.24C124.3 104.89 124.21 106.14 125.52 106.09C127.09 106.04 126.84 107.11 126.81 108.29ZM111.05 98.02C111.15 97.32 111.22 96.75 111.32 96.06C109.93 96.61 109.63 97.16 111.05 98.02Z" fill="#1F44FA" fill-opacity="0.05"/>
<path d="M124.37 54.89C124.55 55.04 125.01 54.85 125.61 54.79C125.3 54.12 125.22 53.59 124.95 53.47C124.7 53.36 124.07 53.63 123.96 53.88C123.85 54.13 124.11 54.67 124.37 54.89Z" fill="#1F44FA" fill-opacity="0.05"/>
<path d="M33.44 132.92C32.93 132.77 32.43 132.61 31.92 132.46C31.83 132.98 31.74 133.5 31.65 134.03C32.24 133.82 32.83 133.62 33.42 133.43C33.42 133.25 33.43 133.08 33.44 132.92Z" fill="#1F44FA" fill-opacity="0.05"/>
</g>
<defs>
<clipPath id="clip0_132_4070">
<rect width="163.87" height="158.29" fill="white"/>
</clipPath>
</defs>
</svg>
